components/Common/Svg/svgs/yellowLogo.svg

<svg
  width="45"
  height="45"
  viewBox="0 0 45 45"
  fill="none"
  xmlns="http://www.w3.org/2000/svg"
>
  <path
    fill-rule="evenodd"
    clip-rule="evenodd"
    d="M22.0394 1.29736C33.5406 1.29736 42.865 10.6218 42.865 22.1229C42.865 33.6241 33.5406 42.9485 22.0394 42.9485C10.5383 42.9485 1.21387 33.6241 1.21387 22.1229C1.21387 10.6218 10.5383 1.29736 22.0394 1.29736Z"
    fill="#FFE603"
  ></path>
  <path
    fill-rule="evenodd"
    clip-rule="evenodd"
    d="M22.0394 1.29736C33.5406 1.29736 42.865 10.6218 42.865 22.1229C42.865 33.6241 33.5406 42.9485 22.0394 42.9485C10.5383 42.9485 1.21387 33.6241 1.21387 22.1229C1.21387 10.6218 10.5383 1.29736 22.0394 1.29736V1.29736Z"
    stroke="#161616"
    stroke-width="0.5"
    stroke-linejoin="round"
  ></path>
  <path
    fill-rule="evenodd"
    clip-rule="evenodd"
    d="M9.98389 26.4554L11.135 28.2135C18.0839 23.6717 25.242 23.6926 33.0281 28.2345L34.0955 26.4345C25.6606 21.4949 17.5606 21.4949 9.98389 26.4554Z"
    fill="#161616"
  ></path>
  <path
    fill-rule="evenodd"
    clip-rule="evenodd"
    d="M22.0606 31.7717C21.2443 31.7717 20.5955 31.102 20.5955 30.3066C20.5955 29.5113 21.2652 28.8415 22.0606 28.8415C22.8559 28.8415 23.5257 29.5113 23.5257 30.3066C23.5257 31.102 22.8769 31.7717 22.0606 31.7717ZM22.0606 26.7275C20.0931 26.7275 18.5024 28.3182 18.5024 30.2857C18.5024 32.2531 20.0931 33.8438 22.0606 33.8438C24.028 33.8438 25.6187 32.2531 25.6187 30.2857C25.6187 28.3182 24.028 26.7275 22.0606 26.7275Z"
    fill="#161616"
  ></path>
  <mask
    x="0"
    y="0"
    width="45"
    height="45"
  >
    <path
      d="M0 0.0834961H44.0791V44.15H0V0.0834961Z"
      fill="white"
    ></path>
  </mask>
  <path
    fill-rule="evenodd"
    clip-rule="evenodd"
    d="M20.5742 19.5069L22.0394 20.972L31.144 11.8883L29.658 10.4023L22.0812 18L14.4626 10.3813L12.9766 11.8674L20.5952 19.4651L20.5742 19.5069Z"
    fill="#161616"
  ></path>
  <path
    fill-rule="evenodd"
    clip-rule="evenodd"
    d="M22.0395 42.0695C11.0302 42.0695 2.09302 33.1114 2.09302 22.123C2.09302 11.1347 11.0512 2.17652 22.0395 2.17652C33.0488 2.17652 41.986 11.1347 41.986 22.123C41.986 33.1114 33.0279 42.0695 22.0395 42.0695ZM22.0395 0.0834961C9.87907 0.0834961 0 9.96257 0 22.123C0 34.2835 9.87907 44.1626 22.0395 44.1626C34.2 44.1626 44.0791 34.2835 44.0791 22.123C44.0791 9.96257 34.2 0.0834961 22.0395 0.0834961Z"
    fill="#161616"
  ></path>
</svg>

<svg width="45" height="45" viewBox="0 0 45 45" fill="none" xmlns="http://www.w3.org/2000/svg"><path fill-rule="evenodd" clip-rule="evenodd" d="M22.04 1.297c11.5 0 20.825 9.325 20.825 20.826 0 11.501-9.324 20.826-20.826 20.826-11.5 0-20.825-9.325-20.825-20.826 0-11.501 9.324-20.826 20.825-20.826Z" fill="#FFE603"/><path clip-rule="evenodd" d="M22.04 1.297c11.5 0 20.825 9.325 20.825 20.826 0 11.501-9.324 20.826-20.826 20.826-11.5 0-20.825-9.325-20.825-20.826 0-11.501 9.324-20.826 20.825-20.826Z" stroke="#161616" stroke-width=".5" stroke-linejoin="round"/><path fill-rule="evenodd" clip-rule="evenodd" d="m9.984 26.455 1.151 1.759c6.949-4.542 14.107-4.521 21.893.02l1.068-1.8c-8.435-4.94-16.535-4.94-24.112.021Z" fill="#161616"/><path fill-rule="evenodd" clip-rule="evenodd" d="M22.06 31.772a1.47 1.47 0 0 1-1.464-1.465c0-.796.67-1.465 1.465-1.465s1.465.67 1.465 1.465a1.47 1.47 0 0 1-1.465 1.465Zm0-5.044a3.555 3.555 0 0 0-3.558 3.558 3.555 3.555 0 0 0 3.559 3.558 3.555 3.555 0 0 0 3.558-3.558 3.555 3.555 0 0 0-3.558-3.559ZM20.574 19.507l1.465 1.465 9.105-9.084-1.486-1.486L22.081 18l-7.618-7.619-1.486 1.486 7.618 7.598-.02.042Z" fill="#161616"/><path fill-rule="evenodd" clip-rule="evenodd" d="M22.04 42.07c-11.01 0-19.947-8.959-19.947-19.947S11.051 2.177 22.04 2.177c11.009 0 19.946 8.958 19.946 19.946 0 10.988-8.958 19.946-19.946 19.946Zm0-41.987C9.88.083 0 9.963 0 22.123c0 12.16 9.88 22.04 22.04 22.04 12.16 0 22.04-9.88 22.04-22.04 0-12.16-9.88-22.04-22.04-22.04Z" fill="#161616"/></svg>
